!!!COM:	Stravinsky
!!!OTL:	376_Str-21/36/[66]1-12
**kern	**kern	**kern	**kern	**dynam	**kern	**dynam
*part5	*part4	*part3	*part2	*part2	*part1	*part1
*staff5	*staff4	*staff3	*staff2	*	*staff1	*
*I"Trumpet II in A	*I"Trumpet I in C	*I"Bassoon	*I"Clarinet in A	*	*I"Flute	*
*I'A Tpt.	*I'C Tpt.	*I'Bsn.	*I'Cl. in A	*	*I'Fl.	*
!!pagebreak:original
*clefG2	*clefG2	*clefF4	*clefG2	*	*clefG2	*
*	*	*	*ITrd2c3	*	*	*
*k[]	*k[]	*k[]	*k[]	*	*k[]	*
*C:	*C:	*C:	*C:	*	*C:	*
*M2/4	*M2/4	*M2/4	*M2/4	*	*M2/4	*
=1	=	=	=	=	=	=
8d#XL	8g#X'L	2r	2r	.	2r	.
8e	8ff'	.	.	.	.	.
8f	8b'	.	.	.	.	.
8f#XJ	[8gg#XJ	.	.	.	.	.
=2	=2	=2	=2	=2	=2	=2
8g#XL	8gg#L]	2r	2r	.	2r	.
!	!LO:TX:i:t=stacc.	!	!	!	!	!
8dd	8ff	.	.	.	.	.
8cc#X	8b	.	.	.	.	.
8bJ	8aJ	.	.	.	.	.
=3	=3	=3	=3	=3	=3	=3
8aL	8ff#X^L	2r	2r	.	2r	.
8g#X	8dd#X	.	.	.	.	.
8f#X	8a	.	.	.	.	.
8eJ	8ff#^J	.	.	.	.	.
=4	=4	=4	=4	=4	=4	=4
8d#XL	8dd#XL	2r	2r	.	2r	.
8e	8g#X	.	.	.	.	.
8f#X	8ff#X^	.	.	.	.	.
8g#XJ	8dd#J	.	.	.	.	.
=5	=5	=5	=5	=5	=5	=5
!!linebreak:original
8aL	8aL	2r	2r	.	2r	.
8b	8ff#X^	.	.	.	.	.
8cc	8dd#X	.	.	.	.	.
8g#X,J	8a,J	.	.	.	.	.
=6	=6	=6	=6	=6	=6	=6
!	!	!LO:TX:i:t=stacc. e leggiero	!LO:TX:i:t=leggiero	!	!LO:TX:t=Solo espressivo	!
2r	2r	8e-X'L	(>16b-X~LL	.	4.g	.
.	.	.	16g)	.	.	.
.	.	8d-X'	16a-X'	.	.	.
.	.	.	16b-'JJ	.	.	.
.	.	8A'	[4g	.	.	.
.	.	8e-'J	.	.	[8a-X^	.
=7	=7	=7	=7	=7	=7	=7
2r	2r	8d-X'L	8gL]	.	4a-]	.
.	.	8A-X'	(>8a-X'~	.	.	.
.	.	8e-X'	16b-XL)	.	(>4b-XT	.
.	.	.	16rJ	.	.	.
.	.	8d-'J	8g'J	.	.	.
=8	=8	=8	=8	=8	=8	=8
!!linebreak:original
2r	2r	8GL	(>16a-X~LL	.	4.cc)	.
.	.	.	16b-X)	.	.	.
.	.	8e-X	16g'	.	.	.
.	.	.	16a-'JJ	.	.	.
.	.	8d-X	[4b-	.	.	.
.	.	8A-XJ	.	.	[8cc^	.
=9	=9	=9	=9	=9	=9	=9
2r	2r	8e-XL	8b-L]	.	4cc]	.
.	.	8d-X	(>8g'~	.	.	.
.	.	8An	16a-XL)	.	(>4dd-Xt	.
.	.	.	16rJ	.	.	.
.	.	8e-J	8bJ	.	.	.
=10	=10	=10	=10	=10	=10	=10
2r	2r	8d-XL	(>16g~LL	.	4.ee-X)	.
.	.	.	16a-X)	.	.	.
.	.	8B-X	16b-X'	.	.	.
.	.	.	16g'JJ	.	.	.
.	.	8e-X	[4a-	.	.	.
.	.	8d-J	.	.	(>[8eee-X^	.
=11	=11	=11	=11	=11	=11	=11
2r	2r	8AL	8a-L]	.	4eee-]	.
.	.	8e-X	(>8b-X'~	.	.	.
.	.	8d-X	16gL)	.	4ccc)	.
.	.	.	16rJ	.	.	.
.	.	8A-XJ	8aJ	.	.	.
=12	=12	=12	=12	=12	=12	=12
2r	2r	8e-XL	(>16b-X~LL	.	4.dd-X	.
.	.	.	16g)	.	.	.
.	.	8d-X	16a-X'	.	.	.
.	.	.	16b-'JJ	.	.	.
.	.	8G	[4g	.	.	.
.	.	8e-J	.	.	(>[8ddd-X^	.
=13	=13	=13	=13	=13	=13	=13
2r	2r	8d-XL	8gL]	.	4ddd-]	.
.	.	8A-X	(>8a-X'~	.	.	.
.	.	8e-X	16b-XL)	.	4bb-X)	.
.	.	.	16rJ	.	.	.
.	.	8d-J	8g~J	.	.	.
=14	=14	=14	=14	=14	=14	=14
!!pagebreak:original
2r	2r	8AnL	(>16a-X~LL	.	8.ccL	.
.	.	.	16b-X)	.	.	.
.	.	8e-X	16g'	.	.	.
.	.	.	16a-'JJ	.	16dd-X'Jk	.
.	.	8d-X	[4b-	.	16ee-X'LL	.
.	.	.	.	.	16ff'	.
.	.	8B-XJ	.	.	16gg'	.
.	.	.	.	.	16aa-X'JJ	.
=15	=15	=15	=15	=15	=15	=15
2r	2r	8e-XL	8b-L]	.	8bb-X'L	.
.	.	8d-X	(>8g'~	.	(>8ccJ	<
.	.	8A	16a-XL)	.	8dd-X'L)	[
.	.	.	16rJ	.	.	.
.	.	8e-J	8bJ	.	(>16cccL	.
.	.	.	.	.	16bb-JJ)	.
=16	=16	=16	=16	=16	=16	=16
2r	2r	8d-XL	(>16g~LL	.	8aa-XL	.
.	.	.	16a-X)	.	.	.
.	.	8A-X	16b-X'	.	(>8b-XJ	<
.	.	.	16g'JJ	.	.	.
.	.	8e-X	[4a-	.	8cc'L)	[
.	.	8d-J	.	.	(>16bb-XL	.
.	.	.	.	.	16aa-JJ)	.
=17	=17	=17	=17	=17	=17	=17
2r	2r	8GL	8a-L]	.	8ggL	.
.	.	8e-X	(>8b-X'~	.	(>8a-XJ	<
.	.	8d-X	16gL)	.	8aa-X'L)	[
.	.	.	16rJ	.	.	.
.	.	8A-XJ	8aJ	.	8ff'J	.
=18	=18	=18	=18	=18	=18	=18
!!linebreak:original
2r	2r	8e-XL	8.b-XL	.	16g'LL	.
.	.	.	.	.	16a-X'	.
.	.	8d-X	.	.	16b-X'	.
.	.	.	16b'Jk	.	16cc'JJ	.
.	.	8An	16cc#'LL	.	16dd-X'LL	.
.	.	.	16dd#X'	.	16ee-X'	.
.	.	8e-J	16ee#X'	.	16ff'	.
.	.	.	16ff#'JJ	.	16gg'JJ	.
=19	=19	=19	=19	=19	=19	=19
2r	2r	8d-XL	8gg#L	.	16aa-X'LL	.
.	.	.	.	.	16bb-X'	.
.	.	8B-X	16aa#XL	.	16ccc'	.
.	.	.	16bb'JJ	.	16ddd-X'JJ	.
.	.	8e-X	16ccc#'LL	.	16eee-X'LL	.
.	.	.	16ddd#X'	.	16fff'	.
.	.	8d-J	16eeei'	.	(>16aaa-X	.
.	.	.	16eee'JJ	.	16gggJJ)	.
=20	=20	=20	=20	=20	=20	=20
2r	2r	8AL	8ccc#L	.	4.eee-X	.
.	.	8e-X	(>8dd#XJ	<	.	.
.	.	8d-X	16ee`LL)	[	.	.
.	.	.	16r	.	.	.
.	.	8A-XJ	(>16ddd#X	.	(>16gggLL	.
.	.	.	16ccc#JJ)	.	16fffJJ)	.
==	==	==	==	==	==	==
*-	*-	*-	*-	*-	*-	*-
!!!system-decoration: [(s1,s2,s3)][(s4,s5)]
!!!RDF**kern: > = above
!!!RDF**kern: i = editorial accidental
!!!ONB: Converted from MusicXML on 2020/01/17
